X: 1714
T: THE BELLES OF CLONALLAN
M:C|
L:1/8
B:O'NEILL'S 1714
Z:Transcribed by A.LEE WORMAN
K:D
DD D2 DFAF|dFAF dFAF|EE E2 EGBG|eGBG eGFE|
DD D2 DFAF|dFAF dFAF|Egfg edce|d2 d2 d2 z2:|
|:fd d2 fdad|fddf a2 ed|cA A2 cAeA|cAAc egfe|
fd d2 fdad|fddf a2 A2|Bbag fedc|d2 d2 d2 z2:|


